X: 33562
T: Rakes Of Clonmel, The
R: jig
M: 6/8
K: Aminor
B3|:c2A GED|EAA A2B|~c3 Adc|BGG G2 d|
~g3 age|dcB g2^f|edc B^cd|1 e^cA ^fdd:|2 e^cA A2a||
|:aea a2d|cBA A2^f|~g3 gdc|BGG G2 B|
~c3 d3|ede a3|edc B^cd|1 e^cA A2a:|2 e^cA ^fdd||

